X:840
T:Billy Barlow
N:"Collected by Cronin"
B:O'Neill's 840
Z:Transcribed by Dan G. Petersen, dangp@post6.tele.dk
M:6/8
L:1/8
K:A
c/d/|ecA ecA|ecA ABc|dBG dBG|dBG GAB|
cBc dcd|efg a z a|age edB|dcAA A2:|
c/d/|e3 efd|ecA ABc|d2d dge|dBG GAB|
cBc dcd|efg a z a|age edB|dcAA A2:|
